X:1
T:Title
%%score { ( 1 3 ) | ( 2 4 ) }
L:1/8
M:4/4
K:G
V:1 treble nm="Grand Piano"
V:3 treble 
V:2 bass 
V:4 bass 
V:1
 z4 z2[Q:1/4=122] G2 | c2 G2 E2 C2 | G4 G2 G2 | [Ec]3 [Ec] [Ge]2 [Ec]2 |[M:3/4] c2 B2 z2 | %5
[M:1/4] G2 |[M:4/4] d2 B2 G2 =F2 | D4 B3 A | G2 =f2 e2 d2 |[M:3/4] [Ec]6 |[M:1/4] c2 | %11
[M:4/4] d6 z2 | d6 z2 | A2 D2 D2 D2 | [B,E]2 D2 D2 D2 | d6 z2 | d6 z2 | A2 D2 D2 D2 | %18
[M:3/4] z2 A2 =F2 |[M:1/4] G2 |[M:4/4] c2 G2 E2 C2 | G4 G2 G2 | [Ec]3 [Ec] [Ge]2 [Ec]2 | %23
[M:3/4] c2 B2 z2 |[M:1/4] G2 |[M:4/4] d2 B2 G2 =F2 | D4 B3 A | G2 =f2 e2 d2 | %28
[M:7/4] [Ec]6 z2 z2 z4 |] %29
V:2
 z4 z2 G,2 | C2 G,2 E,2 C,2 | G,4 G,2 G,2 | [C,G,]3 [C,G,] [C,G,]2 [C,G,]2 |[M:3/4] [D,G,]4 z2 | %5
[M:1/4] G,2 |[M:4/4] D2 B,2 G,2 =F,2 | D,4 B,3 A, | [G,B,=F]2 [G,B,A]2 [G,B,G]2 [G,B,F]2 | %9
[M:3/4][K:bass] [C,G,C]6 |[M:1/4] z2 |[M:4/4] z2 [D,C]2 [D,C]2 z2 | z2 [D,B,]2 [D,B,]2 [D,G,D]2 | %13
 [D,F,C]2 [D,F,C]2 [D,F,C]2 [D,F,C]2 | [G,,G,]2 [D,G,B,]2 [D,G,B,]2 [D,G,B,]2 | %15
 z2 [D,C]2 [D,C]2 z2 | z2 [D,B,]2 [D,B,]2 [D,G,D]2 | [D,F,C]2 [D,F,C]2 [D,F,C]2 [D,F,C]2 | %18
[M:3/4] z2[K:treble] =F2 D2 |[M:1/4] G,2 |[M:4/4] C2 G,2[K:bass] E,2 C,2 | G,4 G,2 G,2 | %22
 [C,G,]3 [C,G,] [C,G,]2 [C,G,]2 |[M:3/4] [D,G,]4 z2 |[M:1/4] G,2 |[M:4/4] D2 B,2 G,2 =F,2 | %26
 D,4 B,3 A, | [G,B,=F]2 [G,B,A]2 [G,B,G]2 [G,B,F]2 |[M:7/4][K:bass] [C,G,C]6 z2 z2 z4 |] %29
V:3
 x8 | x8 | x8 | x8 |[M:3/4] =F4 z2 |[M:1/4] x2 |[M:4/4] x8 | x8 | x8 |[M:3/4] x6 |[M:1/4] x2 | %11
[M:4/4] z2 F2 F2 e2 | z2 G2 G2 B2 | x8 | x8 | z2 F2 F2 e2 | z2 G2 G2 B2 | x8 |[M:3/4] [G,B,G]4 z2 | %19
[M:1/4] x2 |[M:4/4] x8 | x8 | x8 |[M:3/4] =F4 z2 |[M:1/4] x2 |[M:4/4] x8 | x8 | x8 |[M:7/4] x14 |] %29
V:4
 x8 | x8 | x8 | x8 |[M:3/4] x6 |[M:1/4] x2 |[M:4/4] x8 | x8 | x8 |[M:3/4][K:bass] x6 |[M:1/4] x2 | %11
[M:4/4] x8 | x8 | x8 | x8 | x8 | x8 | x8 |[M:3/4] G,,4[K:treble] z2 |[M:1/4] x2 | %20
[M:4/4] x4[K:bass] x4 | x8 | x8 |[M:3/4] x6 |[M:1/4] x2 |[M:4/4] x8 | x8 | x8 | %28
[M:7/4][K:bass] x14 |] %29

